src/assets/images/toolbox/vscode.svg

<svg
  width="32"
  height="32"
  viewBox="0 0 32 32"
  fill="transparent"
  xmlns="http://www.w3.org/2000/svg">
  <path
    fill="#0065A9"
    d="M30.8687 3.39L24.2795 0.199011C23.9074 0.0185387 23.4887 -0.0410173 23.0815 0.0285989C22.6742 0.0982152 22.2985 0.293555 22.0066 0.58754L0.43707 20.368C0.175369 20.6069 0.0187152 20.9405 0.00157064 21.2956C-0.0155739 21.6506 0.108195 21.998 0.34565 22.2612C0.374219 22.2923 0.402788 22.3221 0.433642 22.3497L2.19463 23.959C2.42474 24.1697 2.72093 24.2926 3.03177 24.3065C3.34261 24.3203 3.64846 24.2242 3.89619 24.0349L29.8768 4.21764C30.073 4.06785 30.3069 3.97613 30.5522 3.95281C30.7974 3.92949 31.0443 3.9755 31.2649 4.08564C31.4856 4.19579 31.6713 4.36571 31.8012 4.57627C31.931 4.78683 31.9999 5.02968 32 5.27747V5.20045C32 4.82216 31.8938 4.45155 31.6937 4.13127C31.4935 3.81099 31.2076 3.55405 30.8687 3.39Z"
  />
  <path
    fill="#007ACC"
    d="M30.8687 28.6099L24.2795 31.802C23.9073 31.982 23.4887 32.0412 23.0816 31.9716C22.6744 31.902 22.2988 31.707 22.0066 31.4135L0.43707 11.6319C0.175369 11.393 0.0187152 11.0593 0.00157064 10.7043C-0.0155739 10.3493 0.108195 10.0019 0.34565 9.73865C0.374219 9.70761 0.402788 9.67772 0.433642 9.65014L2.19463 8.04085C2.42497 7.8293 2.72185 7.70582 3.03345 7.69195C3.34506 7.67809 3.65161 7.77472 3.89962 7.96498L29.8768 27.7822C30.073 27.932 30.3069 28.0237 30.5522 28.0471C30.7974 28.0704 31.0443 28.0244 31.2649 27.9142C31.4856 27.8041 31.6713 27.6342 31.8012 27.4236C31.931 27.213 31.9999 26.9702 32 26.7224V26.8052C31.9988 27.1824 31.892 27.5518 31.692 27.8709C31.4919 28.1901 31.2066 28.4461 30.8687 28.6099Z"
  />
  <path
    fill="#1F9CF0"
    d="M24.2795 31.802C23.9073 31.982 23.4887 32.0412 23.0816 31.9716C22.6744 31.902 22.2988 31.707 22.0066 31.4135C22.1707 31.5764 22.379 31.687 22.6053 31.7313C22.8316 31.7757 23.0659 31.7519 23.2788 31.6629C23.4917 31.574 23.6738 31.4237 23.8022 31.2311C23.9306 31.0385 23.9997 30.812 24.0007 30.5801V1.41977C24.0009 1.18676 23.9323 0.958927 23.8037 0.765143C23.6751 0.571359 23.4921 0.42034 23.2781 0.331217C23.0641 0.242095 22.8285 0.218878 22.6014 0.264508C22.3742 0.310139 22.1656 0.422563 22.002 0.58754C22.294 0.293662 22.6696 0.0983094 23.0768 0.0284997C23.484 -0.04131 23.9027 0.0178724 24.275 0.197862L30.863 3.38425C31.2029 3.54748 31.49 3.80407 31.6912 4.12441C31.8924 4.44476 31.9995 4.81579 32 5.1947V26.8052C32.0001 27.1838 31.8938 27.5547 31.6935 27.8752C31.4931 28.1957 31.2068 28.4528 30.8675 28.6168L24.2795 31.802Z"
  />
</svg>

<svg xmlns="http://www.w3.org/2000/svg" width="32" height="32" fill="transparent" xmlns:v="https://vecta.io/nano">
  <path fill="#0065a9"
    d="M30.869 3.39L24.28.199a1.98 1.98 0 0 0-1.198-.17c-.407.07-.783.265-1.075.559L.437 20.368c-.262.239-.418.573-.435.928s.107.702.344.966l.088.088 1.761 1.609c.23.211.526.334.837.348s.617-.082.864-.272L29.877 4.218a1.32 1.32 0 0 1 .675-.265c.245-.023.492.023.713.133s.406.28.536.491a1.34 1.34 0 0 1 .199.701V5.2a2.02 2.02 0 0 0-.306-1.069 2 2 0 0 0-.825-.741z" />
  <path fill="#007acc"
    d="M30.869 28.61l-6.589 3.192c-.372.18-.791.239-1.198.17a1.99 1.99 0 0 1-1.075-.558L.437 11.632c-.262-.239-.418-.573-.435-.928s.107-.702.344-.966l.088-.089 1.761-1.609c.23-.212.527-.335.839-.349s.618.083.866.273l25.977 19.817a1.32 1.32 0 0 0 .675.265c.245.023.492-.023.713-.133s.406-.28.536-.491a1.34 1.34 0 0 0 .199-.701v.083a2.02 2.02 0 0 1-.308 1.066c-.2.319-.485.575-.823.739z" />
  <path fill="#1f9cf0"
    d="M24.28 31.802c-.372.18-.791.239-1.198.17a1.99 1.99 0 0 1-1.075-.558 1.17 1.17 0 0 0 .599.318c.226.044.461.021.674-.068a1.17 1.17 0 0 0 .523-.432c.128-.193.198-.419.198-.651V1.42a1.18 1.18 0 0 0-.197-.655 1.17 1.17 0 0 0-.526-.434c-.214-.089-.45-.112-.677-.067a1.17 1.17 0 0 0-.599.323 1.99 1.99 0 0 1 1.075-.559c.407-.07.826-.011 1.198.169l6.588 3.186a2 2 0 0 1 .828.74A2.02 2.02 0 0 1 32 5.195v21.611a2.02 2.02 0 0 1-.306 1.07 2 2 0 0 1-.826.742l-6.588 3.185z" />
</svg>
